flaticon/delivery/clipboard-1.svg

<svg xmlns="http://www.w3.org/2000/svg" width="32" height="32" viewBox="0 0 24 24">
    <path d="M 19.199219 0.800781 L 15.601562 0.800781 C 15.601562 0.359375 15.238281 0 14.800781 0 L 9.199219 0 C 8.761719 0 8.398438 0.359375 8.398438 0.800781 L 4.800781 0.800781 C 4.121094 0.800781 3.601562 1.320312 3.601562 2 L 3.601562 22.800781 C 3.601562 23.480469 4.121094 24 4.800781 24 L 19.199219 24 C 19.878906 24 20.398438 23.480469 20.398438 22.800781 L 20.398438 2 C 20.398438 1.320312 19.878906 0.800781 19.199219 0.800781 Z M 9.199219 4 L 14.800781 4 C 15.238281 4 15.601562 3.640625 15.601562 3.199219 L 18 3.199219 L 18 21.601562 L 6 21.601562 L 6 3.199219 L 8.398438 3.199219 C 8.398438 3.640625 8.761719 4 9.199219 4 Z M 9.199219 0.800781 L 14.800781 0.800781 L 14.800781 3.199219 L 9.199219 3.199219 Z M 19.601562 22.800781 C 19.601562 23.039062 19.441406 23.199219 19.199219 23.199219 L 4.800781 23.199219 C 4.558594 23.199219 4.398438 23.039062 4.398438 22.800781 L 4.398438 2 C 4.398438 1.761719 4.558594 1.601562 4.800781 1.601562 L 8.398438 1.601562 L 8.398438 2.398438 L 6 2.398438 C 5.558594 2.398438 5.199219 2.761719 5.199219 3.199219 L 5.199219 21.601562 C 5.199219 22.039062 5.558594 22.398438 6 22.398438 L 18 22.398438 C 18.441406 22.398438 18.800781 22.039062 18.800781 21.601562 L 18.800781 3.199219 C 18.800781 2.761719 18.441406 2.398438 18 2.398438 L 15.601562 2.398438 L 15.601562 1.601562 L 19.199219 1.601562 C 19.441406 1.601562 19.601562 1.761719 19.601562 2 Z M 19.601562 22.800781"/>
    <path d="M6.800781 5.601562L6.800781 8C6.800781 8.238281 6.960938 8.398438 7.199219 8.398438L11.199219 8.398438C11.441406 8.398438 11.601562 8.238281 11.601562 8L11.601562 5.601562C11.601562 5.359375 11.441406 5.199219 11.199219 5.199219L7.199219 5.199219C6.960938 5.199219 6.800781 5.359375 6.800781 5.601562zM7.601562 6L10.800781 6 10.800781 7.601562 7.601562 7.601562zM6.800781 10.398438C6.800781 10.640625 6.960938 10.800781 7.199219 10.800781L12.398438 10.800781C12.640625 10.800781 12.800781 10.640625 12.800781 10.398438 12.800781 10.160156 12.640625 10 12.398438 10L7.199219 10C6.960938 10 6.800781 10.160156 6.800781 10.398438zM7.199219 12.398438L11.601562 12.398438C11.839844 12.398438 12 12.238281 12 12 12 11.761719 11.839844 11.601562 11.601562 11.601562L7.199219 11.601562C6.960938 11.601562 6.800781 11.761719 6.800781 12 6.800781 12.238281 6.960938 12.398438 7.199219 12.398438zM7.199219 14L11.199219 14C11.441406 14 11.601562 13.839844 11.601562 13.601562 11.601562 13.359375 11.441406 13.199219 11.199219 13.199219L7.199219 13.199219C6.960938 13.199219 6.800781 13.359375 6.800781 13.601562 6.800781 13.839844 6.960938 14 7.199219 14zM14.457031 13.808594C14.46875 13.824219 14.480469 13.839844 14.492188 13.855469 14.570312 13.960938 14.683594 14 14.800781 14 14.921875 14 15.039062 13.960938 15.121094 13.839844L17.121094 11.039062C17.28125 10.839844 17.199219 10.601562 17.039062 10.480469 16.839844 10.320312 16.601562 10.398438 16.480469 10.558594L14.792969 12.921875 13.921875 11.761719C13.800781 11.601562 13.519531 11.558594 13.359375 11.679688 13.199219 11.800781 13.160156 12.078125 13.28125 12.238281zM12.398438 15.601562L7.199219 15.601562C6.960938 15.601562 6.800781 15.761719 6.800781 16 6.800781 16.238281 6.960938 16.398438 7.199219 16.398438L12.398438 16.398438C12.640625 16.398438 12.800781 16.238281 12.800781 16 12.800781 15.761719 12.640625 15.601562 12.398438 15.601562zM11.601562 17.199219L7.199219 17.199219C6.960938 17.199219 6.800781 17.359375 6.800781 17.601562 6.800781 17.839844 6.960938 18 7.199219 18L11.601562 18C11.839844 18 12 17.839844 12 17.601562 12 17.359375 11.839844 17.199219 11.601562 17.199219zM11.199219 18.800781L7.199219 18.800781C6.960938 18.800781 6.800781 18.960938 6.800781 19.199219 6.800781 19.441406 6.960938 19.601562 7.199219 19.601562L11.199219 19.601562C11.441406 19.601562 11.601562 19.441406 11.601562 19.199219 11.601562 18.960938 11.441406 18.800781 11.199219 18.800781zM14.457031 19.410156C14.46875 19.425781 14.480469 19.441406 14.492188 19.457031 14.570312 19.5625 14.683594 19.601562 14.800781 19.601562 14.921875 19.601562 15.039062 19.558594 15.121094 19.441406L17.121094 16.640625C17.28125 16.441406 17.199219 16.199219 17.039062 16.078125 16.839844 15.921875 16.601562 16 16.480469 16.160156L14.792969 18.523438 13.921875 17.359375C13.800781 17.199219 13.519531 17.160156 13.359375 17.28125 13.199219 17.398438 13.160156 17.679688 13.28125 17.839844zM14.457031 19.410156"/>
</svg>

<svg xmlns="http://www.w3.org/2000/svg" width="32" height="32" viewBox="0 0 24 24">
    <path d="M19.2.8h-3.598c0-.44-.364-.8-.801-.8H9.199c-.437 0-.8.36-.8.8H4.8c-.68 0-1.2.52-1.2 1.2v20.8c0 .68.52 1.2 1.2 1.2h14.398c.68 0 1.2-.52 1.2-1.2V2c0-.68-.52-1.2-1.2-1.2zM9.2 4h5.6c.438 0 .802-.36.802-.8H18v18.402H6V3.199h2.398c0 .442.364.801.801.801zm0-3.2h5.6v2.4H9.2zm10.402 22c0 .24-.16.4-.403.4H4.801c-.242 0-.403-.16-.403-.4V2c0-.238.16-.398.403-.398h3.597v.796H6c-.441 0-.8.364-.8.801v18.403c0 .437.359.796.8.796h12c.441 0 .8-.359.8-.796V3.199c0-.437-.359-.8-.8-.8h-2.398v-.797h3.597c.242 0 .403.16.403.398zm0 0"/>
    <path d="M6.8 5.602V8c0 .238.16.398.4.398h4c.241 0 .402-.16.402-.398V5.602c0-.243-.16-.403-.403-.403h-4c-.238 0-.398.16-.398.403zM7.603 6H10.8v1.602H7.6zm0 0M6.8 10.398c0 .243.16.403.4.403h5.198c.243 0 .403-.16.403-.403 0-.238-.16-.398-.403-.398H7.2c-.238 0-.398.16-.398.398zm0 0M7.2 12.398h4.402c.238 0 .398-.16.398-.398 0-.238-.16-.398-.398-.398H7.199c-.238 0-.398.16-.398.398 0 .238.16.398.398.398zm0 0M7.2 14h4c.241 0 .402-.16.402-.398 0-.243-.16-.403-.403-.403h-4c-.238 0-.398.16-.398.403 0 .238.16.398.398.398zm0 0M14.457 13.809l.035.046a.366.366 0 0 0 .309.145c.12 0 .238-.04.32-.16l2-2.8c.16-.2.078-.438-.082-.56-.2-.16-.437-.082-.559.079l-1.687 2.363-.871-1.16c-.121-.16-.402-.203-.563-.082a.427.427 0 0 0-.078.558zm0 0M12.398 15.602H7.2c-.238 0-.398.16-.398.398 0 .238.16.398.398.398h5.2c.242 0 .402-.16.402-.398 0-.238-.16-.398-.403-.398zm0 0M11.602 17.2H7.199c-.238 0-.398.16-.398.402 0 .238.16.398.398.398h4.403c.238 0 .398-.16.398-.398 0-.243-.16-.403-.398-.403zm0 0M11.2 18.8h-4c-.24 0-.4.16-.4.4 0 .241.16.402.4.402h4c.241 0 .402-.16.402-.403 0-.238-.16-.398-.403-.398zm0 0M14.457 19.41l.035.047a.366.366 0 0 0 .309.145.372.372 0 0 0 .32-.16l2-2.801c.16-.2.078-.442-.082-.563-.2-.156-.437-.078-.559.082l-1.687 2.363-.871-1.164a.432.432 0 0 0-.563-.078c-.16.117-.199.399-.078.559zm0 0"/>
</svg>
